!!!COM: Bach, Johann Sebastian
!!!OPR: Joh. Seb. Bachs vierstimmige Choralgesänge
!!!XEN: Four-part Chorales
!!!OTL: 138. Nun preiset alle Gottes Barmherzigkeit
!!!SCT: BWV 391
!!!SCA: Thematisch-systematisches Verzeichnis der musikalischen Werke Johann Sebastian Bach: Bach-Werke-Verzeichnis (Schmieder)
!!!YOR: Bach Gesellschaft Edition xxxix
!!!ENC: Steven Rasmussen
!!!CDT: 1685/3//-1750/7/28/
!!!OCY: Deutschland
!!!YEC: Copyright (c) 1994, 2000 Center for Computer Assisted Research in the Humanities
!!!YEM: Rights to all derivative editions reserved
!!!YEN: United States of America
**kern	**silbe	**kern	**kern	**kern	**silbe
*I:[BASSO]	*I:[BASSO]	*I:[TENORE]	*I:[ALTO]	*I:[SOPRANO]	*I:[SOPRANO]
*>[A,B,B]	*	*>[A,B,B]	*>[A,B,B]	*>[A,B,B]	*
*>A	*	*>A	*>A	*>A	*
*clefF4	*	*clefGv2	*clefG2	*clefG2	*
*k[f#]	*	*k[f#]	*k[f#]	*k[f#]	*
*G:	*	*G:	*G:	*G:	*
*M3/4	*	*M3/4	*M3/4	*M3/4	*
=1-	=1-	=1-	=1-	=1-	=1-
8GL	.	4B	4d	4g	Nun
8F#J	.	.	.	.	.
4E	.	4B	4e	4g	prei-
4D	.	4d	4f#	4a	-set
=2	=2	=2	=2	=2	=2
4GG	.	4d	8gL	4b	al-
.	.	.	8fnJ	.	.
2C;	.	2c;	2e;	2g;	-le
=3	=3	=3	=3	=3	=3
4.Fn	.	4c	4fn	4a	Got-
.	.	4c	4f	4a	-tes
8E	.	.	.	.	.
4D	.	4d	4f	4b	Barm-
=4	=4	=4	=4	=4	=4
4C	.	2e	2g	2cc	-her-
4E	.	.	.	.	.
4G	.	8dL	4g	4b	-zig-
.	.	8fnJ	.	.	.
=5	=5	=5	=5	=5	=5
2.C;	.	2.e;	2.g;	2.cc;	-keit,
=6	=6	=6	=6	=6	=6
4G	.	4d	4g	4b	lob'
8GL	.	4d	4g	4b	ihn
8F#J	.	.	.	.	.
4E	.	4e	4g	4cc#	mit
=7	=7	=7	=7	=7	=7
2D	.	4A	4f#	4dd	Schal-
.	.	2d;	2f#;	2a;	-le,
4D;	.	.	.	.	.
=8	=8	=8	=8	=8	=8
4G	.	4d	4g	4b	du
4A	.	4A	4g	4cc#	wer-
4B	.	4d	8f#L	4dd	-te
.	.	.	8gJ	.	.
=9	=9	=9	=9	=9	=9
4F#	.	8dL	4a	2dd	Chri-
.	.	8cJ	.	.	.
4G	.	4B	8gL	.	.
.	.	.	8f#J	.	.
4A	.	4A	8gL	4cc#	-sten-
.	.	.	8eJ	.	.
=10	=10	=10	=10	=10	=10
2.D;	.	2.A;	2.f#;	2.dd;	-heit!
=11	=11	=11	=11	=11	=11
4D	.	4d	4f#	4a	Er
4C	.	4d	4f#	4a	lÃ¤sst
4BB	.	4d	4g#	4b	dich
=12	=12	=12	=12	=12	=12
4AA	.	4e	4.a	4cc	freund-
4BB	.	4d	.	4dd	.
.	.	.	8g#	.	.
[4C	-lich	8cL	8aL	4ee	-lich
.	.	8BJ	8gnJ	.	.
=13	=13	=13	=13	=13	=13
4C]	.	4A	4f#	2dd	zu
4BB	zu	4B	4g#	.	.
4AA	sich	8cL	4a	4cc	sich
.	.	8eJ	.	.	.
=14	=14	=14	=14	=14	=14
4D	.	4fn	4a	2b	la-
4E	.	8eL	4g#	.	.
.	.	8dJ	.	.	.
4AA;	.	4c;	4e;	4a;	-den,
=15!|:	=15!|:	=15!|:	=15!|:	=15!|:	=15!|:
*>B	*	*>B	*>B	*>B	*
4.c	.	4g	8eL	4.ee	freu-
.	.	.	8f#J	.	.
.	.	8cL	4g	.	.
8B	.	8dJ	.	8dd	-e
8AL	.	4e	4a	4cc	dich,
8GJ	.	.	.	.	.
=16	=16	=16	=16	=16	=16
8F#L	.	2d	8aL	4.dd	I-
8EJ	.	.	8gJ	.	.
4D	.	.	4f#	.	.
.	.	.	.	8cc	.
8GL	.	4d	4g	4b	-sra-
8F#J	.	.	.	.	.
=17	=17	=17	=17	=17	=17
4E	.	4e	4g	4cc	-el,
4F#	.	4d	4a	4cc	sei-
4G	.	4d	4g	4b	-ner
=18	=18	=18	=18	=18	=18
4C	.	4e	4g	2a	Gna-
4D	.	8dL	4f#	.	.
.	.	8cJ	.	.	.
4GG;	.	4B;	4d;	4g;	-den.
==:|!	==:|!	==:|!	==:|!	==:|!	==:|!
*-	*-	*-	*-	*-	*-
!!!RWG: Key is interpreted using the Humdrum key tool.
!!!END: 1994/07/19
!!!EMD: Converted from MuseData to Humdrum Dec 19, 2000, by Andreas Kornstaedt using muse2kern.
!!!EED: Craig Stuart Sapp
!!!EEV: 2024/03/31
!!!ONB: Some non-unicode characters
!!!filter-keyboard: satb2gs
